X:522
T: Kuangshan laodonghaozi
N: C1940
O: China, Henan Pingdingshan
S: IV, 119]
R: Haozi, Lahao, Pindiao, Guopinxiang]
M: 2/4
L: 1/16
K: G
g8 | dddBABAG | FDFGG4
G4G4
dD2GG2GA | B2GBA2G2
d3BA2G2
GABdABAG | GADFG4
G4G4
GGGAB2d2 | G3BA2G2
d3BA2G2
d2dBABAG | GADFG4
G4G4
c2cde2g2 | c4d2c2
g3ed2c2
c2cde2g2 | c4d2c2
g3ed2c2
d2dBABAG | GADFG4
G4G4
GG2AB2dd | G4A2G2
d3BA2G2
d2dBABAG | GADFG4
G4G4

